packages/core/src/svgs/palm.svg

<svg width="24" height="24" viewBox="0 0 24 24" fill="none" xmlns="http://www.w3.org/2000/svg">
<g clip-path="url(#clip0_31_15705)">
<path d="M0 0H24V24H0V0Z" fill="#F0F3FA"/>
<path fill-rule="evenodd" clip-rule="evenodd" d="M12.0001 18.8572C13.8187 18.8572 15.5628 18.1348 16.8488 16.8488C18.1348 15.5628 18.8572 13.8187 18.8572 12.0001C18.8572 10.1814 18.1348 8.4373 16.8488 7.15134C15.5628 5.86537 13.8187 5.14293 12.0001 5.14293C10.1814 5.14293 8.4373 5.86537 7.15134 7.15134C5.86537 8.4373 5.14293 10.1814 5.14293 12.0001C5.14293 13.8187 5.86537 15.5628 7.15134 16.8488C8.4373 18.1348 10.1814 18.8572 12.0001 18.8572ZM12.0001 19.2858C13.9324 19.2858 15.7855 18.5182 17.1518 17.1518C18.5182 15.7855 19.2858 13.9324 19.2858 12.0001C19.2858 10.0678 18.5182 8.21463 17.1518 6.84829C15.7855 5.48196 13.9324 4.71436 12.0001 4.71436C10.0678 4.71436 8.21463 5.48196 6.84829 6.84829C5.48196 8.21463 4.71436 10.0678 4.71436 12.0001C4.71436 13.9324 5.48196 15.7855 6.84829 17.1518C8.21463 18.5182 10.0678 19.2858 12.0001 19.2858Z" fill="#45651C"/>
<path fill-rule="evenodd" clip-rule="evenodd" d="M18.4287 11.9999C18.4287 13.7048 17.7514 15.34 16.5458 16.5455C15.3402 17.7511 13.7051 18.4284 12.0001 18.4284C10.2951 18.4284 8.66001 17.7511 7.45442 16.5455C6.24883 15.34 5.57153 13.7048 5.57153 11.9999C5.57153 10.2949 6.24883 8.65976 7.45442 7.45417C8.66001 6.24858 10.2951 5.57129 12.0001 5.57129C13.7051 5.57129 15.3402 6.24858 16.5458 7.45417C17.7514 8.65976 18.4287 10.2949 18.4287 11.9999ZM12.0001 10.4999C11.8587 10.1441 11.5715 9.257 11.5715 8.57129C11.5715 7.88557 11.8587 6.857 12.0001 6.42843C12.1415 6.857 12.4287 7.88557 12.4287 8.57129C12.4287 9.257 12.1415 10.1441 12.0001 10.4999ZM12.4287 10.2856C12.7844 9.56986 13.8858 8.14272 15.4287 8.14272L12.4287 10.2856ZM12.8572 10.7141C13.573 10.5727 15.2572 10.5856 16.2858 11.7856C15.2872 11.4299 13.2001 10.7141 12.8572 10.7141ZM12.643 10.9284C13.3587 11.2156 14.8715 12.1284 15.2144 13.4999L12.643 10.9284ZM11.3572 10.9284C10.573 11.1427 8.95725 11.957 8.78582 13.4999C9.42868 12.7156 10.843 11.0999 11.3572 10.9284ZM11.143 10.7141C10.3587 10.5727 8.57153 10.5856 7.71439 11.7856C8.4301 11.357 10.1144 10.5427 11.143 10.7141ZM8.57153 8.14272C9.21439 8.14272 10.7144 8.57129 11.5715 10.2856C10.8558 9.56986 9.25725 8.14272 8.57153 8.14272ZM7.71439 9.64272C9.21439 9.21415 10.6287 9.59986 12.0001 11.1427C13.3715 9.59986 14.7858 9.21415 16.2858 9.64272C14.7901 9.49272 13.063 10.097 12.0987 11.2584C13.2301 12.617 13.3244 14.3613 12.3215 15.5656C12.7073 15.9805 13.1841 16.3003 13.7144 16.4999C14.0572 16.3841 14.2844 16.5941 14.3572 16.7141C14.1858 16.7141 13.8558 17.0013 13.7144 17.1427C13.3715 17.1427 13.4272 16.8556 13.5001 16.7141C12.9471 16.5543 12.4354 16.2765 12.0001 15.8999C11.6144 16.2427 11.113 16.5256 10.5001 16.7141C10.573 16.8556 10.6287 17.1427 10.2858 17.1427C10.1444 17.0013 9.81439 16.7141 9.64296 16.7141C9.71582 16.5941 9.94296 16.3841 10.2858 16.4999C10.8161 16.3003 11.2929 15.9805 11.6787 15.5656C10.6758 14.3656 10.7701 12.617 11.9015 11.2584C10.9372 10.097 9.2101 9.49272 7.71439 9.64272ZM12.0001 11.387C11.6261 11.8737 11.4026 12.4592 11.3572 13.0713C11.3084 13.8302 11.5368 14.5811 12.0001 15.1841C12.4634 14.5811 12.6919 13.8302 12.643 13.0713C12.5976 12.4592 12.3741 11.8737 12.0001 11.387ZM8.69582 15.2527H8.28868L8.2201 15.4241H8.05296L8.4001 14.567H8.58439L8.92725 15.4241H8.76439L8.69582 15.2527ZM8.65296 15.137L8.49439 14.7384L8.33582 15.137H8.64868H8.65296ZM9.56582 15.3127H9.2401V14.5713H9.08153V15.4284H9.56582V15.3127ZM10.7144 15.4284V14.5713H10.543L10.2087 15.2441L9.86582 14.5713H9.69439V15.4284H9.85725V14.8413L10.153 15.4284H10.2601L10.5601 14.8413V15.4284H10.7144ZM7.92868 14.9484C7.9466 14.9187 7.95775 14.8854 7.96133 14.8509C7.9649 14.8164 7.96081 14.7815 7.94935 14.7488C7.93788 14.716 7.91933 14.6862 7.89502 14.6614C7.8707 14.6367 7.84122 14.6176 7.80868 14.6056C7.74897 14.5809 7.68468 14.5692 7.6201 14.5713H7.28582V15.4284H7.44439V15.0813H7.61582C7.70153 15.0813 7.76582 15.0684 7.81296 15.0427C7.86439 15.0213 7.90296 14.987 7.92439 14.9484H7.92868ZM7.75725 14.9313C7.72296 14.9527 7.6801 14.9656 7.6201 14.9656H7.44439V14.687H7.61582C7.7401 14.687 7.8001 14.7299 7.8001 14.8241C7.8018 14.8441 7.79881 14.8642 7.79137 14.8828C7.78393 14.9014 7.77225 14.918 7.75725 14.9313ZM16.2858 14.5713L15.9601 15.1199V15.4284H15.7972V15.1199L15.4672 14.5713H15.6472L15.8787 14.9913L16.1058 14.5713H16.2858ZM14.743 15.257H15.1587L15.2272 15.4284H15.3987L15.043 14.5713H14.8587L14.503 15.4284H14.6744L14.743 15.257ZM14.9487 14.7427L15.1115 15.137H14.7901L14.9487 14.7427ZM14.4044 14.8284C14.4044 14.8713 14.3958 14.9141 14.3701 14.9484C14.3435 14.9916 14.3047 15.0258 14.2587 15.047C14.203 15.0684 14.1387 15.0813 14.0572 15.0813H13.8772V15.4284H13.7144V14.5713H14.0572C14.1301 14.5713 14.1944 14.5841 14.2501 14.6056C14.2971 14.6249 14.3374 14.6577 14.3658 14.6999C14.3915 14.7384 14.4087 14.7813 14.4087 14.8284H14.4044ZM14.0572 14.9656C14.1172 14.9656 14.1644 14.9527 14.1944 14.9313C14.2088 14.9185 14.2201 14.9025 14.2275 14.8847C14.235 14.8669 14.2383 14.8477 14.2372 14.8284C14.2372 14.7341 14.1772 14.687 14.0572 14.687H13.8772V14.9656H14.0572Z" fill="#45651C"/>
</g>
<defs>
<clipPath id="clip0_31_15705">
<rect width="24" height="24" fill="white"/>
</clipPath>
</defs>
</svg>

<svg xmlns="http://www.w3.org/2000/svg" width="24" height="24" fill="none" viewBox="0 0 24 24"><g clip-path="url(#a)"><path fill="#F0F3FA" d="M0 0h24v24H0z"/><path fill="#45651C" fill-rule="evenodd" d="M12 18.857a6.857 6.857 0 1 0 0-13.714 6.857 6.857 0 0 0 0 13.714m0 .429a7.285 7.285 0 1 0 0-14.57 7.285 7.285 0 0 0 0 14.57" clip-rule="evenodd"/><path fill="#45651C" fill-rule="evenodd" d="M18.429 12a6.428 6.428 0 1 1-12.857 0 6.428 6.428 0 0 1 12.857 0M12 10.5c-.141-.356-.428-1.243-.428-1.929s.287-1.714.428-2.143c.142.429.429 1.458.429 2.143 0 .686-.287 1.573-.429 1.929m.429-.214c.355-.716 1.457-2.143 3-2.143zm.428.428c.716-.141 2.4-.128 3.429 1.072-.999-.356-3.086-1.072-3.429-1.072m-.214.214c.716.288 2.228 1.2 2.571 2.572zm-1.286 0c-.784.215-2.4 1.029-2.571 2.572.643-.784 2.057-2.4 2.571-2.572m-.214-.214c-.784-.141-2.571-.128-3.429 1.072.716-.429 2.4-1.243 3.429-1.072M8.572 8.143c.642 0 2.142.428 3 2.143-.716-.716-2.315-2.143-3-2.143m-.858 1.5c1.5-.429 2.915-.043 4.286 1.5 1.371-1.543 2.786-1.929 4.286-1.5-1.496-.15-3.223.454-4.187 1.615 1.131 1.359 1.225 3.103.223 4.308.385.414.862.734 1.392.934a.54.54 0 0 1 .643.214c-.171 0-.501.287-.643.429-.343 0-.287-.287-.214-.429A4 4 0 0 1 12 15.9c-.386.343-.887.626-1.5.814.073.142.129.429-.214.429-.142-.142-.472-.429-.643-.429.073-.12.3-.33.643-.214.53-.2 1.007-.52 1.393-.934-1.003-1.2-.909-2.949.223-4.308-.965-1.161-2.692-1.765-4.188-1.615M12 11.387a3.15 3.15 0 0 0-.643 1.684c-.049.76.18 1.51.643 2.113a3.14 3.14 0 0 0 .643-2.113A3.15 3.15 0 0 0 12 11.387m-3.304 3.866h-.407l-.069.171h-.167l.347-.857h.184l.343.857h-.163zm-.043-.116-.159-.399-.158.399h.317m.913.176H9.24v-.742h-.158v.857h.484zm1.148.115v-.857h-.171l-.334.673-.343-.673h-.172v.857h.163v-.587l.296.587h.107l.3-.587v.587zm-2.785-.48a.236.236 0 0 0-.12-.342.5.5 0 0 0-.189-.035h-.334v.857h.158v-.347h.172q.128 0 .197-.038a.22.22 0 0 0 .111-.095zm-.172-.017a.25.25 0 0 1-.137.035h-.176v-.279h.172c.124 0 .184.043.184.137a.13.13 0 0 1-.043.107m8.529-.36-.326.549v.308h-.163v-.308l-.33-.549h.18l.232.42.227-.42zm-1.543.686h.416l.068.171h.172l-.356-.857h-.184l-.356.857h.171zm.206-.514.162.394h-.32zm-.545.085a.2.2 0 0 1-.034.12.26.26 0 0 1-.111.099.6.6 0 0 1-.202.034h-.18v.347h-.163v-.857h.343q.11.001.193.035a.26.26 0 0 1 .159.222zm-.347.138a.24.24 0 0 0 .137-.035.13.13 0 0 0 .043-.103q0-.141-.18-.141h-.18v.279z" clip-rule="evenodd"/></g><defs><clipPath id="a"><path fill="#fff" d="M0 0h24v24H0z"/></clipPath></defs></svg>
